X:1

T:Whoe’er She Be

T:Be nEirinn I

M:C

L:1/8

R:Air

N:”With Expression”

S:Joyce – Ancient Irish Music (1890)

Z:AK/Fiddler’s Companion

K:F

C | F2 F>G A2 (c>B) | A2G2F2 (c>d) | _e2 (d/c/A) G2 (Ac) | _e2 d2 c3c |

C2.A2f2 (ef) | d2 (c/A/G) A2 (AG) | F2F2F3G | A2 (F/D/C) D2 (c(3e/d/c/) |

A3G F3 || 

 

WHOLE BUNCH OF KEYS. Old‑Time, Breakdown. A Major. AEae tuning. AABBBB. Source for notated version: Tara Nevins (New York) via Liz Slade (Yorktown, New York) [Kuntz]. Kuntz, Private Collection.

